X:46
T:Fekete a kökény, fehér a virága
M:4/4
L:1/4
K:D
D/D/E/F/ G<A | d<B A<E | D2 D z |
A/A/B/c/ d<e | f<e c<B|  A2 A z
A/A/B/c/ d e | fdcB | B2 A z |
D/D/E/F/ G<A | d<B A<E | D2 D z

